icons/credit-card.svg

<svg xmlns="http://www.w3.org/2000/svg" width="24" height="24" viewBox="0 0 24 24">
  <path d="M22,11 L22,17 C22,18.1045695 21.1045695,19 20,19 L4,19 C2.8954305,19 2,18.1045695 2,17 L2,11 L22,11 Z M2,7 C2,5.8954305 2.8954305,5 4,5 L20,5 C21.1045695,5 22,5.8954305 22,7 L22,9 L2,9 L2,7 Z"/>
</svg>

<svg xmlns="http://www.w3.org/2000/svg" viewBox="0 0 24 24">
  <path d="M22 11v6a2 2 0 0 1-2 2H4a2 2 0 0 1-2-2v-6h20zM2 7c0-1.1.9-2 2-2h16a2 2 0 0 1 2 2v2H2V7z"/>
</svg>
